X:335
T: Padraig O'Keeffe's Favorite
S: "Johnny O'Leary of Sliabh Luachra" (#86)
Z: B.Black
L: 1/8
M: 12/8
Q: 350
R: slide
K: Amix
e3 efe dcd fed|c2A dBA a3 a2f|
e3 efe dcd fed|c2A BGB A3 A3 :|
e2a aga e2d Bcd|e2a aga e2f d3|
e2a a2g e2f gfe|d2e def g3 f2g :|
